images/icons/twitter.svg

<svg width="64" height="64" viewBox="0 0 64 64" fill="none" xmlns="http://www.w3.org/2000/svg">
<path d="M57.4212 18.9645C57.4619 19.533 57.4619 20.1016 57.4619 20.6701C57.4619 38.0101 44.264 57.9899 20.1421 57.9899C12.7106 57.9899 5.80713 55.8375 0 52.1016C1.05587 52.2234 2.071 52.264 3.1675 52.264C9.29938 52.264 14.9441 50.193 19.4517 46.66C13.6852 46.5381 8.85275 42.7615 7.18775 37.5635C8 37.6853 8.81213 37.7665 9.665 37.7665C10.8426 37.7665 12.0204 37.604 13.1167 37.3199C7.10662 36.1015 2.59888 30.8224 2.59888 24.4468V24.2844C4.345 25.259 6.37563 25.8681 8.52775 25.9493C4.99475 23.5939 2.68012 19.5736 2.68012 15.0254C2.68012 12.5889 3.32975 10.3554 4.46688 8.40613C10.9237 16.3655 20.6294 21.5634 31.5125 22.132C31.3095 21.1574 31.1876 20.1423 31.1876 19.127C31.1876 11.8985 37.0354 6.01025 44.3044 6.01025C48.081 6.01025 51.4921 7.594 53.8881 10.1524C56.8525 9.58388 59.6951 8.48738 62.213 6.98488C61.2383 10.0306 59.1672 12.589 56.4465 14.2133C59.0861 13.9291 61.6445 13.198 63.9997 12.1829C62.2132 14.7818 59.9796 17.0964 57.4212 18.9645Z" fill="black"/>
</svg>

<svg width="64" height="64" viewBox="0 0 64 64" fill="none" xmlns="http://www.w3.org/2000/svg"><path d="M57.421 18.965c.04.568.04 1.137.04 1.705 0 17.34-13.197 37.32-37.319 37.32-7.431 0-14.335-2.153-20.142-5.888 1.056.121 2.071.162 3.167.162a26.269 26.269 0 0 0 16.285-5.604c-5.767-.122-10.6-3.898-12.264-9.096.812.121 1.624.203 2.477.203 1.178 0 2.355-.163 3.452-.447-6.01-1.218-10.518-6.498-10.518-12.873v-.163a13.211 13.211 0 0 0 5.929 1.665A13.108 13.108 0 0 1 2.68 15.025c0-2.436.65-4.67 1.787-6.619a37.284 37.284 0 0 0 27.046 13.726 14.807 14.807 0 0 1-.325-3.005c0-7.228 5.847-13.117 13.116-13.117 3.777 0 7.188 1.584 9.584 4.142a25.825 25.825 0 0 0 8.325-3.167 13.082 13.082 0 0 1-5.767 7.228c2.64-.284 5.199-1.015 7.554-2.03a28.194 28.194 0 0 1-6.579 6.782Z" fill="#000"/></svg>
